packages/IcoMoon/src/Table2Icon/index.svg

<svg version="1.1" xmlns="http://www.w3.org/2000/svg" width="16" height="16" viewBox="0 0 16 16">
<path d="M0 3v11h16v-11h-16zM6 10v-2h4v2h-4zM10 11v2h-4v-2h4zM10 5v2h-4v-2h4zM5 5v2h-4v-2h4zM1 8h4v2h-4v-2zM11 8h4v2h-4v-2zM11 7v-2h4v2h-4zM1 11h4v2h-4v-2zM11 13v-2h4v2h-4z"></path>
</svg>

<svg xmlns="http://www.w3.org/2000/svg" viewBox="0 0 16 16">
  <path d="M0 3v11h16V3H0zm6 7V8h4v2H6zm4 1v2H6v-2h4zm0-6v2H6V5h4zM5 5v2H1V5h4zM1 8h4v2H1V8zm10 0h4v2h-4V8zm0-1V5h4v2h-4zM1 11h4v2H1v-2zm10 2v-2h4v2h-4z"/>
</svg>
